Sources/FrostedUI/Resources/Icons.xcassets/telegramSize16.imageset/telegram-size-16.svg

<svg
  width="16"
  height="16"
  viewBox="0 0 16 16"
  fill="none"
  xmlns="http://www.w3.org/2000/svg"
  data-fui-icon="true"
>
  <path
    d="M2.82486 7.31097C6.04668 5.91211 8.19456 4.98982 9.26845 4.54425C12.3384 3.27191 12.9755 3.05093 13.3915 3.04353C13.4831 3.04198 13.6868 3.06452 13.8197 3.17174C13.9302 3.2621 13.9613 3.38429 13.9769 3.46999C13.9907 3.5557 14.0097 3.75103 13.9942 3.90352C13.8285 5.64518 13.1085 9.87161 12.7424 11.8224C12.5887 12.6478 12.2831 12.9246 11.9879 12.9516C11.3455 13.0104 10.8587 12.5289 10.2371 12.1229C9.26501 11.4873 8.71598 11.0918 7.77153 10.4718C6.68033 9.75511 7.38821 9.3612 8.00981 8.71753C8.17207 8.54906 11.0002 5.9856 11.0537 5.75309C11.0607 5.724 11.0676 5.61558 11.002 5.55844C10.9381 5.50113 10.8431 5.52075 10.774 5.53624C10.6756 5.55827 9.12341 6.58192 6.11222 8.60702C5.67194 8.9089 5.2731 9.05603 4.91397 9.04831C4.52031 9.03986 3.76066 8.82594 3.19606 8.64318C2.50542 8.41893 1.95461 8.30034 2.00296 7.91947C2.02713 7.72121 2.3017 7.51831 2.82486 7.31097Z"
    stroke="currentColor"
    stroke-width="1.25"
  />
</svg>

<svg xmlns="http://www.w3.org/2000/svg" width="16" height="16" fill="none" data-fui-icon="true" viewBox="0 0 16 16"><path stroke="currentColor" stroke-width="1.25" d="M2.825 7.311a539 539 0 0 1 6.443-2.767c3.07-1.272 3.707-1.493 4.124-1.5.091-.002.295.02.428.128.11.09.141.212.157.298.014.086.033.281.017.434-.165 1.741-.886 5.968-1.252 7.918-.153.826-.459 1.103-.754 1.13-.643.058-1.13-.423-1.75-.83-.973-.635-1.522-1.03-2.466-1.65-1.092-.717-.384-1.11.238-1.754.162-.169 2.99-2.732 3.044-2.965.007-.029.014-.137-.052-.195-.064-.057-.159-.037-.228-.022q-.146.033-4.662 3.071-.66.453-1.198.441c-.394-.008-1.153-.222-1.718-.405-.69-.224-1.241-.343-1.193-.724q.037-.297.822-.608Z"/></svg>
